P3
# 8x8 woodland camouflage texture shared in appearance, not file ownership.
8 8
255
52 66 34  52 66 34  126 101 57  126 101 57  48 52 31  48 52 31  72 82 39  72 82 39
52 66 34  68 82 38  126 101 57  142 112 63  48 52 31  60 65 35  72 82 39  90 99 46
126 101 57  126 101 57  52 66 34  52 66 34  60 65 35  60 65 35  142 112 63  142 112 63
142 112 63  126 101 57  52 66 34  68 82 38  60 65 35  48 52 31  142 112 63  126 101 57
48 52 31  60 65 35  72 82 39  72 82 39  126 101 57  126 101 57  52 66 34  52 66 34
48 52 31  60 65 35  90 99 46  72 82 39  142 112 63  126 101 57  52 66 34  68 82 38
72 82 39  72 82 39  126 101 57  142 112 63  52 66 34  52 66 34  48 52 31  60 65 35
90 99 46  72 82 39  142 112 63  126 101 57  52 66 34  68 82 38  60 65 35  48 52 31
